;FLAVOR:Marlin
;TIME:4161
;Filament used: 1.1085m
;Layer height: 0.2
;MINX:80.544
;MINY:79.173
;MINZ:0.2
;MAXX:139.46
;MAXY:138.769
;MAXZ:8
;Generated with Cura_SteamEngine 4.8.0
M140 S80
M105
M190 S80
M104 S210
M105
M109 S210
M82 ;absolute extrusion mode
; Ender 3 Custom Start G-code
G92 E0 ; Reset Extruder
G28 ; Home all axes
G1 Z2.0 F3000 ; Move Z Axis up little to prevent scratching of Heat Bed
G1 X0.1 Y20 Z0.3 F5000.0 ; Move to start position
G1 X0.1 Y200.0 Z0.3 F1500.0 E15 ; Draw the first line
G1 X0.4 Y200.0 Z0.3 F5000.0 ; Move to side a little
G1 X0.4 Y20 Z0.3 F1500.0 E30 ; Draw the second line
G92 E0 ; Reset Extruder
G1 Z2.0 F3000 ; Move Z Axis up little to prevent scratching of Heat Bed
G1 X5 Y20 Z0.3 F5000.0 ; Move over to prevent blob squish
G92 E0
G92 E0
;LAYER_COUNT:40
;LAYER:0
M107
G0 F6000 X87.088 Y83.817 Z0.2
;TYPE:SKIRT
G1 F1200 X87.333 Y83.565 E0.01169
G1 X87.659 Y83.241 E0.02698
G1 X87.724 Y83.179 E0.02996
G1 X88.466 Y82.527 E0.06282
G1 X88.965 Y82.143 E0.08376
G1 X89.259 Y81.929 E0.09585
G1 X89.659 Y81.65 E0.11208
G1 X90.498 Y81.13 E0.14491
G1 X91.201 Y80.762 E0.1713
G1 X91.624 Y80.558 E0.18692
G1 X92.531 Y80.165 E0.21979
G1 X93.666 Y79.79 E0.25955
G1 X94.099 Y79.67 E0.2745
G1 X95.06 Y79.445 E0.30732
G1 X96.094 Y79.293 E0.34208
G1 X96.411 Y79.26 E0.35268
G1 X96.789 Y79.226 E0.36531
G1 X96.899 Y79.218 E0.36898
G1 X97.593 Y79.187 E0.39208
G1 X98.423 Y79.174 E0.41969
G1 X100.001 Y79.173 E0.47217
G1 X100.826 Y79.183 E0.49962
G1 X101.536 Y79.214 E0.52325
G1 X103.213 Y79.334 E0.57917
G1 X104.508 Y79.432 E0.62237
G1 X106.965 Y79.552 E0.70419
G1 X109.42 Y79.602 E0.78586
G1 X111.946 Y79.582 E0.86987
G1 X114.401 Y79.494 E0.95158
G1 X116.854 Y79.335 E1.03334
G1 X117.251 Y79.3 E1.04659
G1 X118.339 Y79.22 E1.08288
G1 X119.039 Y79.189 E1.10618
G1 X120.109 Y79.173 E1.14178
G1 X121.63 Y79.174 E1.19236
G1 X122.296 Y79.183 E1.21452
G1 X123.043 Y79.216 E1.23939
G1 X123.363 Y79.24 E1.25006
G1 X123.845 Y79.285 E1.26616
G1 X124.823 Y79.425 E1.29902
G1 X125.558 Y79.584 E1.32403
G1 X125.875 Y79.663 E1.3349
G1 X126.294 Y79.775 E1.34932
G1 X127.234 Y80.078 E1.38217
G1 X128.009 Y80.394 E1.41001
G1 X128.364 Y80.553 E1.42295
G1 X128.702 Y80.71 E1.43534
G1 X129.575 Y81.172 E1.46819
G1 X130.275 Y81.611 E1.49568
G1 X130.568 Y81.809 E1.50744
G1 X130.954 Y82.08 E1.52312
G1 X131.731 Y82.69 E1.55598
G1 X132.311 Y83.218 E1.58207
G1 X132.579 Y83.478 E1.59449
G1 X132.849 Y83.748 E1.60719
G1 X133.511 Y84.481 E1.64004
G1 X134.011 Y85.125 E1.66716
G1 X134.25 Y85.455 E1.68071
G1 X134.529 Y85.856 E1.69696
G1 X135.046 Y86.697 E1.72979
G1 X135.36 Y87.295 E1.75225
G1 X135.487 Y87.554 E1.76185
G1 X135.675 Y87.955 E1.77658
G1 X135.737 Y88.094 E1.78164
G1 X136.102 Y89.012 E1.8145
G1 X136.341 Y89.766 E1.84081
G1 X136.464 Y90.204 E1.85594
G1 X136.692 Y91.165 E1.88879
G1 X136.852 Y92.239 E1.9249
G1 X136.885 Y92.556 E1.9355
G1 X136.918 Y92.918 E1.94759
G1 X136.926 Y93.026 E1.9512
G1 X136.957 Y93.734 E1.97477
G1 X136.972 Y94.749 E2.00853
G1 X136.972 Y98.431 E2.13099
G1 X137.009 Y101.025 E2.21728
G1 X137.114 Y103.512 E2.30007
G1 X137.288 Y105.967 E2.38193
G1 X137.52 Y108.337 E2.46113
G1 X139.343 Y124.748 E3.01032
G1 X139.405 Y125.393 E3.03187
G1 X139.46 Y126.379 E3.06472
G1 X139.434 Y127.366 E3.09756
G1 X139.329 Y128.348 E3.13041
G1 X139.145 Y129.319 E3.16328
G1 X138.883 Y130.271 E3.19612
G1 X138.545 Y131.199 E3.22897
G1 X138.132 Y132.097 E3.26184
G1 X137.649 Y132.958 E3.29468
G1 X137.097 Y133.777 E3.32753
G1 X136.481 Y134.549 E3.36038
G1 X135.805 Y135.269 E3.39322
G1 X135.072 Y135.932 E3.4261
G1 X134.288 Y136.533 E3.45895
G1 X133.459 Y137.069 E3.49179
G1 X132.588 Y137.535 E3.52464
G1 X131.683 Y137.93 E3.55748
G1 X130.749 Y138.251 E3.59033
G1 X129.791 Y138.495 E3.62321
G1 X128.818 Y138.66 E3.65604
G1 X127.573 Y138.756 E3.69757
G1 X127.26 Y138.764 E3.70798
G1 X126.919 Y138.768 E3.71933
G1 X124.408 Y138.762 E3.80284
G1 X121.742 Y138.768 E3.89151
G1 X121.009 Y138.759 E3.9159
G1 X119.989 Y138.704 E3.94987
G1 X118.591 Y138.568 E3.99659
G1 X118.406 Y138.548 E4.00278
G1 X115.941 Y138.346 E4.08504
G1 X113.477 Y138.213 E4.16711
G1 X110.988 Y138.15 E4.24992
G1 X108.496 Y138.157 E4.3328
G1 X106.006 Y138.235 E4.41566
G1 X103.564 Y138.38 E4.49703
G1 X101.187 Y138.586 E4.57638
G1 X100.027 Y138.7 E4.61515
G1 X99.006 Y138.758 E4.64916
G1 X98.106 Y138.769 E4.6791
G1 X95.258 Y138.764 E4.77383
G1 X93.261 Y138.768 E4.84025
G1 X92.61 Y138.761 E4.8619
G1 X91.623 Y138.711 E4.89477
G1 X90.644 Y138.58 E4.92762
G1 X89.679 Y138.371 E4.96046
G1 X88.734 Y138.085 E4.9933
G1 X87.815 Y137.723 E5.02615
G1 X86.928 Y137.288 E5.05901
G1 X86.079 Y136.783 E5.09187
G1 X85.274 Y136.21 E5.12473
G1 X84.518 Y135.575 E5.15757
G1 X83.816 Y134.88 E5.19042
G1 X83.173 Y134.131 E5.22326
G1 X82.592 Y133.332 E5.25611
G1 X82.077 Y132.489 E5.28897
G1 X81.633 Y131.607 E5.32181
G1 X81.261 Y130.691 E5.3547
G1 X80.965 Y129.749 E5.38754
G1 X80.745 Y128.786 E5.42039
G1 X80.605 Y127.808 E5.45325
G1 X80.544 Y126.823 E5.48608
G1 X80.575 Y125.646 E5.52524
G1 X80.6 Y125.314 E5.53631
G1 X80.641 Y124.883 E5.55071
G1 X82.478 Y108.348 E6.10405
G1 X82.728 Y105.775 E6.19003
G1 X82.9 Y103.26 E6.27388
G1 X82.998 Y100.805 E6.3556
G1 X83.028 Y98.459 E6.43363
G1 X83.029 Y94.475 E6.56614
G1 X83.039 Y93.821 E6.58789
G1 X83.071 Y93.117 E6.61133
G1 X83.094 Y92.803 E6.6218
G1 X83.124 Y92.457 E6.63336
G1 X83.14 Y92.3 E6.6386
G1 X83.28 Y91.322 E6.67146
G1 X83.439 Y90.587 E6.69648
G1 X83.518 Y90.27 E6.70734
G1 X83.617 Y89.897 E6.72018
G1 X83.917 Y88.956 E6.75303
G1 X84.254 Y88.127 E6.78279
G1 X84.441 Y87.711 E6.79796
G1 X84.882 Y86.827 E6.83082
G1 X85.417 Y85.946 E6.8651
G1 X85.607 Y85.661 E6.87649
G1 X85.856 Y85.302 E6.89102
G1 X85.933 Y85.195 E6.89541
G1 X86.541 Y84.417 E6.92825
G1 X87.088 Y83.817 E6.95525
G0 F6000 X87.374 Y84.095
G1 F1200 X87.619 Y83.843 E6.96694
G1 X88.001 Y83.468 E6.98475
G1 X88.73 Y82.827 E7.01704
G1 X89.201 Y82.467 E7.03675
G1 X89.495 Y82.253 E7.04885
G1 X89.883 Y81.982 E7.06459
G1 X90.709 Y81.47 E7.09691
G1 X91.375 Y81.122 E7.1219
G1 X91.798 Y80.918 E7.13752
G1 X92.69 Y80.533 E7.16984
G1 X93.773 Y80.176 E7.20776
G1 X94.206 Y80.056 E7.22271
G1 X95.152 Y79.835 E7.25502
G1 X96.135 Y79.69 E7.28807
G1 X96.452 Y79.657 E7.29867
G1 X96.928 Y79.617 E7.31456
G1 X97.599 Y79.587 E7.3369
G1 X98.429 Y79.574 E7.36451
G1 X100.001 Y79.573 E7.41679
G1 X100.82 Y79.583 E7.44403
G1 X101.507 Y79.613 E7.4669
G1 X103.183 Y79.733 E7.52279
G1 X104.458 Y79.829 E7.56532
G1 X106.938 Y79.95 E7.6479
G1 X109.45 Y80.002 E7.73147
G1 X111.964 Y79.982 E7.81509
G1 X114.404 Y79.894 E7.89629
G1 X116.893 Y79.734 E7.97925
G1 X117.281 Y79.699 E7.99221
G1 X118.369 Y79.619 E8.02849
G1 X119.045 Y79.589 E8.051
G1 X120.109 Y79.573 E8.08639
G1 X121.624 Y79.574 E8.13678
G1 X122.29 Y79.583 E8.15893
G1 X123.014 Y79.615 E8.18304
G1 X123.334 Y79.639 E8.19371
G1 X123.804 Y79.683 E8.20941
G1 X124.766 Y79.821 E8.24173
G1 X125.461 Y79.972 E8.26539
G1 X125.778 Y80.051 E8.27626
G1 X126.186 Y80.16 E8.2903
G1 X127.111 Y80.459 E8.32263
G1 X127.845 Y80.759 E8.34901
G1 X128.2 Y80.918 E8.36195
G1 X128.53 Y81.071 E8.37404
G1 X129.388 Y81.526 E8.40635
G1 X130.051 Y81.942 E8.43238
G1 X130.344 Y82.14 E8.44414
G1 X130.72 Y82.405 E8.45944
G1 X131.484 Y83.005 E8.49175
G1 X132.032 Y83.505 E8.51642
G1 X132.3 Y83.765 E8.52884
G1 X132.563 Y84.027 E8.54119
G1 X133.213 Y84.749 E8.5735
G1 X133.687 Y85.36 E8.59922
G1 X133.926 Y85.69 E8.61277
G1 X134.197 Y86.08 E8.62857
G1 X134.705 Y86.907 E8.66085
G1 X135.001 Y87.471 E8.68203
G1 X135.128 Y87.73 E8.69163
G1 X135.31 Y88.118 E8.70588
G1 X135.372 Y88.257 E8.71095
G1 X135.73 Y89.16 E8.74325
G1 X135.956 Y89.874 E8.76816
G1 X136.079 Y90.312 E8.78329
G1 X136.302 Y91.257 E8.81559
G1 X136.455 Y92.28 E8.84999
G1 X136.488 Y92.597 E8.86059
G1 X136.527 Y93.055 E8.87588
G1 X136.558 Y93.74 E8.89869
G1 X136.571 Y94.562 E8.92603
G1 X136.572 Y98.437 E9.05491
G1 X136.609 Y101.048 E9.14176
G1 X136.714 Y103.521 E9.22409
G1 X136.89 Y105.998 E9.30668
G1 X137.12 Y108.351 E9.38532
G1 X138.945 Y124.786 E9.93531
G1 X139.007 Y125.431 E9.95686
G1 X139.06 Y126.401 E9.98917
G1 X139.033 Y127.372 E10.02148
G1 X138.926 Y128.337 E10.05377
G1 X138.741 Y129.291 E10.08609
G1 X138.477 Y130.226 E10.11841
G1 X138.138 Y131.136 E10.1507
G1 X137.724 Y132.015 E10.18302
G1 X137.24 Y132.857 E10.21532
G1 X136.688 Y133.657 E10.24765
G1 X136.073 Y134.408 E10.27994
G1 X135.397 Y135.106 E10.31225
G1 X134.667 Y135.747 E10.34457
G1 X133.886 Y136.325 E10.37688
G1 X133.061 Y136.836 E10.40916
G1 X132.196 Y137.279 E10.44148
G1 X131.297 Y137.648 E10.4738
G1 X130.372 Y137.943 E10.5061
G1 X129.425 Y138.16 E10.53841
G1 X128.463 Y138.299 E10.57074
G1 X127.562 Y138.356 E10.60077
G1 X127.249 Y138.364 E10.61118
G1 X126.92 Y138.368 E10.62212
G1 X124.408 Y138.362 E10.70567
G1 X121.747 Y138.368 E10.79418
G1 X121.014 Y138.359 E10.81856
G1 X120.028 Y138.306 E10.8514
G1 X118.803 Y138.188 E10.89233
G1 X118.484 Y138.153 E10.90301
G1 X115.959 Y137.946 E10.98727
G1 X113.472 Y137.813 E11.07011
G1 X110.997 Y137.75 E11.15245
G1 X108.483 Y137.758 E11.23607
G1 X106.004 Y137.835 E11.31856
G1 X103.505 Y137.983 E11.40182
G1 X101.192 Y138.184 E11.47904
G1 X99.987 Y138.302 E11.51931
G1 X99 Y138.358 E11.55219
G1 X98.107 Y138.369 E11.5819
G1 X95.258 Y138.364 E11.67666
G1 X93.265 Y138.368 E11.74294
G1 X92.614 Y138.361 E11.7646
G1 X91.644 Y138.311 E11.7969
G1 X90.681 Y138.181 E11.82922
G1 X89.733 Y137.972 E11.86151
G1 X88.804 Y137.686 E11.89384
G1 X87.903 Y137.325 E11.92612
G1 X87.034 Y136.89 E11.95845
G1 X86.204 Y136.386 E11.99074
G1 X85.418 Y135.815 E12.02306
G1 X84.682 Y135.181 E12.05536
G1 X84 Y134.489 E12.08768
G1 X83.378 Y133.743 E12.11999
G1 X82.819 Y132.949 E12.15228
G1 X82.327 Y132.111 E12.1846
G1 X81.906 Y131.235 E12.21693
G1 X81.558 Y130.328 E12.24924
G1 X81.286 Y129.396 E12.28153
G1 X81.092 Y128.444 E12.31385
G1 X80.977 Y127.48 E12.34614
G1 X80.941 Y126.509 E12.37845
G1 X80.974 Y125.676 E12.40618
G1 X80.999 Y125.344 E12.41725
G1 X81.038 Y124.927 E12.43118
G1 X82.879 Y108.355 E12.98576
G1 X83.127 Y105.807 E13.07091
G1 X83.298 Y103.303 E13.15439
G1 X83.398 Y100.79 E13.23804
G1 X83.428 Y98.464 E13.31541
G1 X83.429 Y94.482 E13.44785
G1 X83.439 Y93.828 E13.4696
G1 X83.47 Y93.146 E13.49231
G1 X83.493 Y92.832 E13.50278
G1 X83.522 Y92.498 E13.51393
G1 X83.538 Y92.341 E13.51918
G1 X83.676 Y91.379 E13.5515
G1 X83.827 Y90.684 E13.57516
G1 X83.906 Y90.367 E13.58603
G1 X84.003 Y90.003 E13.59855
G1 X84.298 Y89.078 E13.63085
G1 X84.618 Y88.291 E13.6591
G1 X84.805 Y87.875 E13.67427
G1 X85.24 Y87.006 E13.7066
G1 X85.75 Y86.168 E13.73922
G1 X85.94 Y85.883 E13.75062
G1 X86.18 Y85.536 E13.76465
G1 X86.257 Y85.429 E13.76903
G1 X86.857 Y84.664 E13.80137
G1 X87.374 Y84.095 E13.82694
G0 F6000 X87.661 Y84.374
G1 F1200 X87.906 Y84.122 E13.83863
G1 X88.277 Y83.758 E13.85592
G1 X88.994 Y83.128 E13.88766
G1 X89.436 Y82.79 E13.90617
G1 X89.73 Y82.576 E13.91826
G1 X90.107 Y82.313 E13.93355
G1 X90.92 Y81.811 E13.96533
G1 X91.549 Y81.483 E13.98893
G1 X91.972 Y81.279 E14.00455
G1 X92.849 Y80.9 E14.03632
G1 X93.879 Y80.561 E14.07239
G1 X94.312 Y80.441 E14.08733
G1 X95.242 Y80.225 E14.11909
G1 X96.177 Y80.088 E14.15052
G1 X96.494 Y80.055 E14.16112
G1 X96.957 Y80.016 E14.17657
G1 X97.605 Y79.987 E14.19815
G1 X98.435 Y79.974 E14.22576
G1 X100.001 Y79.973 E14.27784
G1 X100.815 Y79.983 E14.30492
G1 X101.478 Y80.011 E14.32699
G1 X103.153 Y80.132 E14.38284
G1 X104.447 Y80.229 E14.426
G1 X106.91 Y80.35 E14.50802
G1 X109.446 Y80.402 E14.59239
G1 X111.946 Y80.382 E14.67554
G1 X114.48 Y80.291 E14.75988
G1 X116.903 Y80.135 E14.84063
G1 X117.008 Y80.124 E14.84414
G1 X117.31 Y80.098 E14.85423
G1 X118.398 Y80.018 E14.89051
G1 X119.052 Y79.988 E14.91228
G1 X119.927 Y79.974 E14.94139
G1 X121.465 Y79.973 E14.99255
G1 X122.285 Y79.983 E15.01982
G1 X122.984 Y80.014 E15.04309
G1 X123.304 Y80.038 E15.05377
G1 X123.764 Y80.081 E15.06913
G1 X124.709 Y80.217 E15.10089
G1 X125.365 Y80.36 E15.12322
G1 X125.682 Y80.439 E15.13408
G1 X126.079 Y80.546 E15.14776
G1 X126.987 Y80.84 E15.1795
G1 X127.682 Y81.124 E15.20447
G1 X128.037 Y81.283 E15.21741
G1 X128.357 Y81.432 E15.22915
G1 X129.201 Y81.879 E15.26092
G1 X129.827 Y82.273 E15.28552
G1 X130.12 Y82.471 E15.29728
G1 X130.486 Y82.729 E15.31217
G1 X131.237 Y83.32 E15.34396
G1 X131.754 Y83.792 E15.36724
G1 X132.022 Y84.052 E15.37966
G1 X132.277 Y84.307 E15.39166
G1 X132.916 Y85.017 E15.42343
G1 X133.363 Y85.594 E15.4477
G1 X133.602 Y85.924 E15.46126
G1 X133.865 Y86.303 E15.4766
G1 X134.364 Y87.117 E15.50836
G1 X134.642 Y87.647 E15.52826
G1 X134.769 Y87.906 E15.53786
G1 X134.944 Y88.281 E15.55162
G1 X135.006 Y88.42 E15.55668
G1 X135.358 Y89.308 E15.58845
G1 X135.57 Y89.982 E15.61195
G1 X135.693 Y90.42 E15.62708
G1 X135.913 Y91.349 E15.65884
G1 X136.057 Y92.322 E15.69155
G1 X136.09 Y92.639 E15.70215
G1 X136.128 Y93.085 E15.71704
G1 X136.158 Y93.747 E15.73908
G1 X136.171 Y94.569 E15.76642
G1 X136.172 Y98.443 E15.89527
G1 X136.209 Y101.035 E15.98149
G1 X136.316 Y103.568 E16.06582
G1 X136.491 Y106.026 E16.14778
G1 X136.726 Y108.432 E16.22818
G1 X138.547 Y124.824 E16.77673
G1 X138.609 Y125.469 E16.79829
G1 X138.66 Y126.423 E16.83006
G1 X138.632 Y127.377 E16.86181
G1 X138.523 Y128.326 E16.89358
G1 X138.336 Y129.262 E16.92532
G1 X138.071 Y130.179 E16.95707
G1 X137.731 Y131.071 E16.98882
G1 X137.316 Y131.931 E17.02058
G1 X136.832 Y132.754 E17.05234
G1 X136.28 Y133.533 E17.08409
G1 X135.665 Y134.263 E17.11584
G1 X134.991 Y134.939 E17.14759
G1 X134.262 Y135.557 E17.17938
G1 X133.485 Y136.111 E17.21112
G1 X132.664 Y136.598 E17.24287
G1 X131.805 Y137.015 E17.27462
G1 X130.914 Y137.359 E17.30639
G1 X129.998 Y137.627 E17.33813
G1 X129.062 Y137.817 E17.3699
G1 X128.114 Y137.928 E17.40165
G1 X127.552 Y137.956 E17.42036
G1 X127.239 Y137.964 E17.43078
G1 X126.921 Y137.968 E17.44135
G1 X124.408 Y137.962 E17.52494
G1 X121.752 Y137.968 E17.61328
G1 X121.019 Y137.959 E17.63766
G1 X120.066 Y137.907 E17.6694
G1 X118.679 Y137.773 E17.71575
G1 X118.49 Y137.752 E17.72207
G1 X116.013 Y137.549 E17.80473
G1 X113.469 Y137.412 E17.88947
G1 X111.007 Y137.349 E17.97138
G1 X108.47 Y137.358 E18.05577
G1 X106.002 Y137.434 E18.13789
G1 X103.486 Y137.584 E18.22172
G1 X101.118 Y137.789 E18.30078
G1 X99.948 Y137.904 E18.33988
G1 X98.994 Y137.958 E18.37166
G1 X98.107 Y137.969 E18.40116
G1 X95.257 Y137.964 E18.49595
G1 X93.269 Y137.968 E18.56208
G1 X92.618 Y137.961 E18.58373
G1 X91.665 Y137.911 E18.61547
G1 X90.719 Y137.781 E18.64723
G1 X89.787 Y137.573 E18.67899
G1 X88.876 Y137.287 E18.71075
G1 X87.992 Y136.926 E18.74251
G1 X87.142 Y136.492 E18.77425
G1 X86.331 Y135.989 E18.80599
G1 X85.564 Y135.419 E18.83778
G1 X84.848 Y134.788 E18.86952
G1 X84.188 Y134.098 E18.90128
G1 X83.587 Y133.356 E18.93303
G1 X83.05 Y132.566 E18.96481
G1 X82.582 Y131.734 E18.99656
G1 X82.185 Y130.866 E19.0283
G1 X81.862 Y129.968 E19.06004
G1 X81.615 Y129.046 E19.09179
G1 X81.446 Y128.106 E19.12356
G1 X81.356 Y127.155 E19.15533
G1 X81.347 Y126.2 E19.18709
G1 X81.373 Y125.706 E19.20355
G1 X81.398 Y125.374 E19.21462
G1 X81.436 Y124.971 E19.22808
G1 X83.274 Y108.434 E19.78149
G1 X83.529 Y105.805 E19.86934
G1 X83.697 Y103.345 E19.95135
G1 X83.798 Y100.811 E20.0357
G1 X83.828 Y98.469 E20.1136
G1 X83.829 Y94.488 E20.24601
G1 X83.839 Y93.834 E20.26777
G1 X83.868 Y93.175 E20.28971
G1 X83.891 Y92.861 E20.30018
G1 X83.936 Y92.381 E20.31621
G1 X84.072 Y91.436 E20.34797
G1 X84.215 Y90.78 E20.3703
G1 X84.294 Y90.463 E20.38116
G1 X84.388 Y90.109 E20.39335
G1 X84.68 Y89.2 E20.4251
G1 X84.983 Y88.455 E20.45185
G1 X85.17 Y88.039 E20.46702
G1 X85.598 Y87.185 E20.49879
G1 X86.083 Y86.389 E20.5298
G1 X86.273 Y86.104 E20.54119
G1 X86.505 Y85.769 E20.55474
G1 X86.582 Y85.662 E20.55913
G1 X87.172 Y84.911 E20.59089
G1 X87.661 Y84.374 E20.61505
G0 F6000 X87.948 Y84.653
G1 F1200 X88.193 Y84.401 E20.62674
G1 X88.553 Y84.047 E20.64353
G1 X89.258 Y83.43 E20.67469
G1 X89.672 Y83.114 E20.69201
G1 X89.966 Y82.9 E20.70411
G1 X90.332 Y82.644 E20.71896
G1 X91.13 Y82.151 E20.75016
G1 X91.723 Y81.843 E20.77239
G1 X92.146 Y81.639 E20.78801
G1 X93.007 Y81.268 E20.81919
G1 X93.986 Y80.947 E20.85345
G1 X94.419 Y80.827 E20.8684
G1 X95.333 Y80.615 E20.89961
G1 X96.218 Y80.486 E20.92935
G1 X96.535 Y80.453 E20.93995
